X:1
T:[ID 1-91b]
T:[ID 1-91b]
T:Bezeichnung standardisiert: Le pistolet; Fechten Tantz In anderer Quelle: Le Pistolet - R. A. Feuillet, 1706 (Anm. S. Wascher);  Fechten Tantz - Dahlhoff SBB 1-102b (Anm. S. Wascher);  Le Pistolet - E.A. Jayme, Wolfenb\"uttel 1717 (Anm. S. Wascher);  Pistolet - Johann Friedrich Drey\sser, 1720 (Anm. S. Wascher);  Het Schermschool - Hs. Volksmelodie\"en 1755-1773 (Anm. S. Wascher);  Pistolekt - Dahlhoff SBB 1-91b (Anm. S. Wascher);
T:Urheber unbekannt Erstbeleg: 1706 (Datum in der schriftlichen Quelle) Datum in der hier transkribierten schriftlichen Quelle: vermutlich vor 1767
C:Urheber unbekannt
C:Erstbeleg: 1706 (Datum in der schriftlichen Quelle)
C:Datum in der hier transkribierten schriftlichen Quelle: vermutlich vor 1767
L:1/8
M:4/4
K:F
V:1 treble 
V:1
 F2 G2 A2 B2 | c4 A4 | d2 c2 B2 A2 | G4 F4 | c2 d2 e2 f2 | g4 e4 | a2 g2 f2 e2 | d4 c4 :: g4 a4 | %9
 b6 a2 | b2 a2 g2 f2 | e2 de c4 | f2 ef g4 | g2 fg e4 | f2 g2 a2 f2 | g4 f4 :| %16

